X: 1
T: Hana
C: Rentaro Taki
O: arr. James Gray
R: air
B: Alex & James Gray "Tweeddale Collection" v.4 #8 p.23, p.50 #1,8
N: Tune for "Hana" by Alex Gray
Z: 2017 John Chambers <jc:trillian.mit.edu>
M: C
L: 1/8
K: G
D2 |\
"G"D3D "/b"G3G | "C"AGFE "G/B"D4 | "G"B,DGA B2d2 | "D7"A6 z2 |\
"G"D3D "/b"G3G | "C"AGEF "G/B"D4 | "D"A3A "D7"A2B2 | "G"G6 z2 ||
"G"d3d d3B | "Am7"c3c "D7"c3A | "Em"B4 "A7"E2A2 | "D7"D6 z2 |\
"G"D3D "/b"G3G | "C"AGFE "G/B"D4 | "D"A2A>B "D7"c2A2 | "G"G6 |]
